svgs/sharp-solid/square-f.svg

<svg xmlns="http://www.w3.org/2000/svg" viewBox="0 0 448 512"><!--! Font Awesome Pro 6.6.0 by @fontawesome - https://fontawesome.com License - https://fontawesome.com/license (Commercial License) Copyright 2024 Fonticons, Inc. --><path d="M448 32L0 32 0 480l448 0 0-448zM152 128l144 0 24 0 0 48-24 0-120 0 0 64 88 0 24 0 0 48-24 0-88 0 0 72 0 24-48 0 0-24 0-96 0-112 0-24 24 0z"/></svg>

<svg xmlns="http://www.w3.org/2000/svg" viewBox="0 0 448 512"><!--! Font Awesome Pro 6.4.2 by @fontawesome - https://fontawesome.com License - https://fontawesome.com/license (Commercial License) Copyright 2023 Fonticons, Inc. --><path d="M448 32H0V480H448V32zM152 128H296h24v48H296 176v64h88 24v48H264 176v72 24H128V360 264 152 128h24z"/></svg>
